X:1
T: Danse de Chez Nous
C: Trad
R: Jig
M: 6/8
L: 1/8
K: Gmaj
Z: ABC transcription by Verge Roller
r: 32
|: D | "G" DGB d2 B | "G" e2 B dBG | "G" DGB d2 B | "G" e2 B "D"cAF |
"D" DFA c2 A | "D" d2 A cAF | "D" DFA cBA | [1 "G" GBe "D" d2 :| [2 "G" GBe "D" de |]
|: f | "G" g2 B d2 G | "G" B3 B2 D | "G" DEF GAB | "Am"c3 c2 d |
"D" e2 A c2 G | "D" F3 F2 d | "D" fed cBA | [1 "G" GBe "D" de :| [2 "G" G3-G2 |]
